fonts/kmap-icons/SVG_edits/photos.svg

<?xml version="1.0" encoding="utf-8"?>
<!-- Generated by IcoMoon.io -->
<!DOCTYPE svg PUBLIC "-//W3C//DTD SVG 1.1//EN" "http://www.w3.org/Graphics/SVG/1.1/DTD/svg11.dtd">
<svg version="1.1" xmlns="http://www.w3.org/2000/svg" xmlns:xlink="http://www.w3.org/1999/xlink" width="32" height="32" viewBox="0 0 32 32">
<g>
</g>
	<path d="M16 6c-5.523 0-10 4.478-10 10 0 5.523 4.477 10 10 10 5.523 0 10-4.477 10-10 0-5.522-4.477-10-10-10zM16 24c-4.418 0-8-3.582-8-8s3.582-8 8-8c4.418 0 8 3.582 8 8s-3.582 8-8 8z" fill="#000000" />
	<path d="M20.634 16l1.366 1.386-7.517 7.62-1.367-1.387 7.518-7.619z" fill="#000000" />
	<path d="M17.517 6.996l1.366 1.385-7.517 7.619-1.366-1.385 7.517-7.619z" fill="#000000" />
	<path d="M16 13.758l1.414-1.415 7.778 7.778-1.414 1.415-7.778-7.778z" fill="#000000" />
	<path d="M7.040 12.222l1.414-1.414 7.778 7.778-1.414 1.414-7.778-7.778z" fill="#000000" />
	<path d="M13 14v-2h11v2h-11z" fill="#000000" />
	<path d="M8 20v-2h11v2h-11z" fill="#000000" />
</svg>

<?xml version="1.0" encoding="utf-8"?>
<!-- Generator: Adobe Illustrator 14.0.0, SVG Export Plug-In . SVG Version: 6.00 Build 43363)  -->
<!DOCTYPE svg PUBLIC "-//W3C//DTD SVG 1.1//EN" "http://www.w3.org/Graphics/SVG/1.1/DTD/svg11.dtd">
<svg version="1.1" id="Layer_1" xmlns="http://www.w3.org/2000/svg" xmlns:xlink="http://www.w3.org/1999/xlink" x="0px" y="0px"
	 width="32px" height="32px" viewBox="0 0 32 32" enable-background="new 0 0 32 32" xml:space="preserve">
<path fill-rule="evenodd" clip-rule="evenodd" fill="#231F20" d="M16,6C10.477,6,6,10.478,6,16c0,5.523,4.477,10,10,10
	c5.523,0,10-4.477,10-10C26,10.478,21.523,6,16,6z M16,24c-4.418,0-8-3.582-8-8s3.582-8,8-8c4.418,0,8,3.582,8,8S20.418,24,16,24z"
	/>
<path fill-rule="evenodd" clip-rule="evenodd" fill="#231F20" d="M20.634,16L22,17.386l-7.517,7.62l-1.367-1.387L20.634,16"/>
<path fill-rule="evenodd" clip-rule="evenodd" fill="#231F20" d="M17.517,6.996l1.366,1.385L11.366,16L10,14.615L17.517,6.996"/>
<path fill-rule="evenodd" clip-rule="evenodd" fill="#231F20" d="M16,13.758l1.414-1.415l7.778,7.778l-1.414,1.415L16,13.758"/>
<path fill-rule="evenodd" clip-rule="evenodd" fill="#231F20" d="M7.04,12.222l1.414-1.414l7.778,7.778L14.818,20L7.04,12.222"/>
<path fill-rule="evenodd" clip-rule="evenodd" fill="#231F20" d="M13,14v-2h11v2H13"/>
<path fill-rule="evenodd" clip-rule="evenodd" fill="#231F20" d="M8,20v-2h11v2H8"/>
</svg>
